//-----------------------------------------------------------------------
//-----------------------------------------------------------------------
Pdef(\rhodes,
	Pbind(
		\instrument,\rhodes,
		\midinote,Pseq([12,8,7,0,[-12,4,12],[-12,4,12],[-12,4,12],[-11,5,12],[-11,5,12],[-9,7,12],7]+48,inf),
		\dur,Pseq([
			0.5,0.5,0.5,0.5,
			1.5,1.0,1.0,
			1.0,1.0,2.0,0.5],inf),
		// \cutoff,Pstutter(11,Pn(Pseries(500,500,4),inf)),
		\cutoff, Pkey(\midinote) + 700
	)
);
