//-----------------------------------------------------------------------
//---------------------------EVENTS-------------------------------------
Ndef(\gtrSweep,
	PbindProxy(
		\func, Pfunc{
			\gtr @ {|in| HPF.ar(in,XLine.kr(19000,200,60))}
		},
		\dur, Pseq(({rand(10,40)}!5).normalizeSum * 120)++60)
	)
);
//-----------------------------------------------------------------------
//-----------------------------------------------------------------------
\dolph @ .1 {|in|
	AllpassC.ar(in, 2/3, LFNoise1.kr(0.5).range(1/12,2/3), 4)
};
//-----------------------------------------------------------------------
//-----------------------------------------------------------------------
\dreamverb @ .1 {|in|
	AllpassC.ar(in,1,LFNoise1.kr(0.1).range(0.5,1.0),8)
};

t.default.schedAbs((t.default.beats + 4).round(4.0), { arg beat, sec;
	\dream.set(\mix, 1)
 });