//An Environment of Functions which return envelopes
v=();
//WAVE
v.tri = {|dur=3,gate=1,done=2|
	// Env([0,1,0],[0.5,0.5]).kr(gate,done);
	dur.postln;
};
//CRESC
//DIM


v.pir=3;

v.pir={arg dur;
	dur.postln};

	v.pir.value(4)




