Pdef(\summerGlide.postln,
	Pmono(
		\fmMMCAsr,
		\midinote,Pseq([0,-2,0,3,5],inf) + 60 + [0,3,7,10],
		\amp,0.1,
		\dur,Pseq([3,5+2,2,2,2],inf)*0.25,
		\modRatio1,Pwhite(1,10),
		\modRatio2,Pwhite(1,10),
		\index1,Pwhite(1,10),
		\index2,Pwhite(1,10)
	)
)
